X: 100a
T: Dennis Murphy's
R:polka
D:Planxty
M:2/4
L:1/8
K:D
"D"f/g/f/e/ dB|AD FA|"A7"GE e>d|cB BA|
"D"f/g/f/e/ dB|AD FA|"A7"GE e>f|1"D" ed de:|2 "D"ed d>B||
|:"D"Af f/e/f|"G"Bg g/f/g|"D"Af f/e/f|"A7"e/f/e/d/ BA|
"D"Af f/e/f|"G"Bg g>a|"A7"ba gc|1"D" ed d>B:|2"D" ed de||


